X:1
T:Hail, Happy Morning
T:Philip Paul Bliss, 1871
T:Hail, Happy Morning
T:Public Domain
T:Public Domain
C:Philip Paul Bliss, 1871
Z:Public Domain
%%score ( 1 2 ) 3
L:1/8
M:4/4
K:Bb
V:1 treble 
V:2 treble 
V:3 bass 
V:1
 [DB]2 [B,D]>[CE] [DF]2 [DB]2 | [Ec]2 [EG]>[E^F] [EG]4 | [EA]2 [EA]>[E^G] [EA]2 [Ec]2 | %3
w: 1.~Hail hap- py morn- ing,|hail, ho- ly day,|Call- ing from earth- ly|
w: 2.~Em- blem of hea- ven,|sweet day of rest,|In thy “re- mem- brance,”|
w: 3.~Rest from our la- bors,|rest from our cares,|Rest in our prais- es,|
 [Ec]2 [DB]>[B,D] [DF]4 | [DB]2 [B,D]>[CE] [DF]2 [DB]2 | [Ec]2 [EG]>[E^F] [EG]4 | %6
w: la- bors a- way,|Sweet words of wis- dom,|glad songs of joy,|
w: may we be blessed.|So may our songs and|lives ev- er say,|
w: rest in our prayers,|So the com- mand- ment|would we o- bey,|
 [EA]2 [EA]>[EA] [EA]2 (GA) | [DB]6 z ||"^Refrain" [Dd]2 [Dd]2 [Dd]3 [De] | %9
w: Now be our best em- *|||
w: “Hal- low the Sab- bath *|||
w: “Hal- low the Sab- bath *|||
 [Dd][Dc][DB][DA] [DG]4 | [Gc]2 [Fc]2 [=Ec]3 [Ed] | [=Ec][EB][FA][EG] F4 | %12
w: |||
w: |||
w: |||
 [DB]2 [B,D]>[CE] [DF]2 [DB]2 | [Ec]2 [EG]>[E^F] [EG]4 | [EA]2 [EA]>[EA] [EA]2 (GA) | [DB]8 |] %16
w: ||||
w: ||||
w: ||||
V:2
 x8 | x8 | x8 | x8 | x8 | x8 | x6 E2 | x7 || x8 | x8 | x8 | x8 | x8 | x8 | x6 E2 | x8 |] %16
w: ||||||ploy.||||||||||
w: ||||||day.”||||||||||
w: ||||||day.”||||||||||
V:3
 [B,,B,]2 [B,,B,]>[B,,B,] [B,,B,]2 [B,,F,]2 | [E,G,]2 [E,C]>[E,C] [E,C]4 | %2
w: ~ ~ ~ ~ ~|~ ~ ~ ~|
 [F,C]2 [F,C]>[F,C] [F,C]2 [F,A,]2 | [B,,B,]2 [B,,B,]>[B,,B,] [B,,B,]4 | %4
w: ~ ~ ~ ~ ~|~ ~ ~ ~|
 [B,,B,]2 [B,,B,]>[B,,B,] [B,,B,]2 [B,,F,]2 | [E,G,]2 [E,C]>[E,C] [E,C]4 | %6
w: ~ ~ ~ ~ ~|~ ~ ~ ~|
 [F,C]2 F,>F, F,2 [F,C]2 | [B,,B,]6 z || [B,D]2 [A,C]2 [G,B,]3 [G,B,] | %9
w: ~ ~ ~ ~ ~|~|Sing once more the|
 [G,B,][G,B,][G,B,][G,B,] [G,B,]4 | [E,G,]2 [D,G,]2 [C,G,]3 [C,G,] | %11
w: hap- py, hap- py song,|While the gold- en|
 [C,G,][C,G,][C,C][C,B,] [F,A,]4 | [B,,B,]2 [B,,B,]>[B,,B,] [B,,B,]2 [B,,F,]2 | %13
w: mo- ments roll a- long,|“Come to the temp- le,|
 [E,G,]2 [E,C]>[E,C] [E,C]4 | [F,C]2 F,>F, F,2 [F,C]2 | [B,,B,]8 |] %16
w: come, come a- way,|Hal- low the Sab- bath|day.”|

